dist/assets/img/youtube.svg

<svg width="25" height="19" viewBox="0 0 25 19" fill="none" xmlns="http://www.w3.org/2000/svg">
<path d="M24.751 4.5C24.751 4.5 24.5068 2.77637 23.7549 2.01953C22.8027 1.02344 21.7383 1.01855 21.25 0.959961C17.7539 0.706055 12.5049 0.706055 12.5049 0.706055H12.4951C12.4951 0.706055 7.24609 0.706055 3.75 0.959961C3.26172 1.01855 2.19727 1.02344 1.24512 2.01953C0.493164 2.77637 0.253906 4.5 0.253906 4.5C0.253906 4.5 0 6.52637 0 8.54785V10.4424C0 12.4639 0.249023 14.4902 0.249023 14.4902C0.249023 14.4902 0.493164 16.2139 1.24023 16.9707C2.19238 17.9668 3.44238 17.9326 3.99902 18.04C6.00098 18.2305 12.5 18.2891 12.5 18.2891C12.5 18.2891 17.7539 18.2793 21.25 18.0303C21.7383 17.9717 22.8027 17.9668 23.7549 16.9707C24.5068 16.2139 24.751 14.4902 24.751 14.4902C24.751 14.4902 25 12.4688 25 10.4424V8.54785C25 6.52637 24.751 4.5 24.751 4.5ZM9.91699 12.7422V5.71582L16.6699 9.24121L9.91699 12.7422Z" fill="#A7A7A7"/>
</svg>

<svg width="25" height="19" fill="none" xmlns="http://www.w3.org/2000/svg"><path d="M24.751 4.5s-.244-1.724-.996-2.48c-.952-.997-2.017-1.001-2.505-1.06-3.496-.254-8.745-.254-8.745-.254h-.01S7.246.706 3.75.96c-.488.059-1.553.063-2.505 1.06C.493 2.776.254 4.5.254 4.5S0 6.526 0 8.548v1.894c0 2.022.249 4.048.249 4.048s.244 1.724.991 2.48c.952.997 2.202.963 2.759 1.07 2.002.19 8.501.25 8.501.25s5.254-.01 8.75-.26c.488-.058 1.553-.063 2.505-1.06.752-.756.996-2.48.996-2.48S25 12.47 25 10.442V8.548c0-2.022-.249-4.048-.249-4.048ZM9.917 12.742V5.716L16.67 9.24l-6.753 3.501Z" fill="#A7A7A7"/></svg>
